contributed-vectors/joiplay.svg

<?xml version="1.0" encoding="UTF-8" standalone="no"?>
<svg
   xmlns:dc="http://purl.org/dc/elements/1.1/"
   xmlns:cc="http://creativecommons.org/ns#"
   xmlns:rdf="http://www.w3.org/1999/02/22-rdf-syntax-ns#"
   xmlns:svg="http://www.w3.org/2000/svg"
   xmlns="http://www.w3.org/2000/svg"
   xmlns:sodipodi="http://sodipodi.sourceforge.net/DTD/sodipodi-0.dtd"
   xmlns:inkscape="http://www.inkscape.org/namespaces/inkscape"
   viewBox="0 0 192 192"
   version="1.1"
   id="svg16"
   sodipodi:docname="joiplay.svg"
   inkscape:version="0.92.4 (5da689c313, 2019-01-14)">
  <metadata
     id="metadata20">
    <rdf:RDF>
      <cc:Work
         rdf:about="">
        <dc:format>image/svg+xml</dc:format>
        <dc:type
           rdf:resource="http://purl.org/dc/dcmitype/StillImage" />
        <dc:title />
      </cc:Work>
    </rdf:RDF>
  </metadata>
  <sodipodi:namedview
     pagecolor="#ffffff"
     bordercolor="#666666"
     borderopacity="1"
     objecttolerance="10"
     gridtolerance="10"
     guidetolerance="10"
     inkscape:pageopacity="0"
     inkscape:pageshadow="2"
     inkscape:window-width="1920"
     inkscape:window-height="1017"
     id="namedview18"
     showgrid="false"
     inkscape:zoom="6.9532166"
     inkscape:cx="100.61197"
     inkscape:cy="45.003769"
     inkscape:window-x="-8"
     inkscape:window-y="-8"
     inkscape:window-maximized="1"
     inkscape:current-layer="svg16"
     inkscape:snap-global="true">
    <inkscape:grid
       type="xygrid"
       id="grid827"
       spacingx="4"
       spacingy="4" />
  </sodipodi:namedview>
  <defs
     id="defs4">
    <style
       id="style2">.a{fill:none;stroke:#b1b5bd;stroke-linecap:round;stroke-linejoin:round;isolation:isolate;opacity:0.63;}</style>
  </defs>
  <path
     style="opacity:1;fill:#56595b;stroke-width:1.40148556"
     d="M 123.80273 8 C 123.80273 8 88.751887 18.735376 80.46875 61.816406 C 66.628617 51.639575 55.675781 50.730469 55.675781 50.730469 C 55.675781 50.730469 60.554989 62.791065 59.908203 68.871094 C 58.456208 82.520147 50.961946 86.080376 47.412109 97.089844 C 46.586353 99.650835 46.806641 104.3457 46.806641 104.3457 C 46.806641 104.3457 38.398033 99.778403 37.939453 80.560547 C 17.72406 116.76034 38.542969 142.23828 38.542969 142.23828 C 38.542969 142.23828 30.659924 145.59511 20 135.78906 C 20.686784 146.73855 28.749165 165.45121 46.306641 176.42969 C 58.345328 183.95735 72.982717 184.39469 89.501953 183.21484 L 110.74023 170.85938 L 135.58008 177.67383 L 135.58398 177.68164 C 165.69374 167.44721 181.38096 132.23701 174.5957 95.677734 C 165.33732 106.48197 158.06836 105.15234 158.06836 105.15234 C 158.06836 105.15234 165.73709 76.686262 145.16797 49.117188 C 147.29084 61.849224 140.33008 65.646484 140.33008 65.646484 C 132.41079 50.242002 121.33722 36.535961 119.57031 22.916016 C 118.54241 14.992558 123.80273 8 123.80273 8 z "
     id="path829" />
  <path
     style="fill:#ffffff;stroke-width:1.40148556"
     d="m 134.45047,70.169161 c 0,0 -23.62248,7.908869 -39.520805,16.516726 -4.205228,2.27684 -10.407881,8.855862 -10.83141,9.405286 -0.400201,0.519166 -0.780004,3.505298 0,6.128757 -4.730736,1.54208 -13.54779,6.91102 -16.106146,11.54584 -0.65441,1.18555 0.569354,6.12875 0.569354,6.12875 0,0 4.609584,-4.35087 12.77761,-5.02289 17.841185,-1.46789 24.706667,1.31662 24.706667,1.31662 0,0 -4.6697,-0.43245 -6.848664,0.0575 -3.523867,0.7924 -9.493145,3.92069 -9.542141,4.64516 -0.05718,0.84586 2.426084,0.58095 3.555723,0.21624 0.853729,-0.27564 4.280558,-2.14641 6.531134,-2.042 1.318588,0.0611 3.103658,0.73013 3.169768,1.54109 0.0767,0.94014 -6.81478,5.58474 -13.11429,6.12874 -12.150691,1.0493 -17.529523,-1.99547 -17.529523,-1.99547 0,0 0.389894,6.28971 1.995464,10.97374 2.65339,7.74089 5.912517,8.20635 5.912517,8.20635 -2.625767,-4.36289 -0.495439,-5.64152 -0.495439,-5.64152 0,0 1.58358,-1.6223 5.685329,-2.0858 1.796789,-0.20303 7.162181,-0.0634 10.847821,-1.04838 2.176508,-0.58207 6.126031,-2.85224 6.126031,-2.85224 0,0 -0.44134,4.66951 -1.56572,7.05669 -2.263107,4.80481 -15.253197,17.65221 -14.751185,31.49784 0.133281,3.67454 2.543038,10.02847 3.476343,12.36975 9.873494,-0.70504 20.417152,-1.98969 31.481422,-2.68253 5.18059,-0.3244 10.05104,-1.31371 14.60063,-2.86046 -1.21471,-5.69098 -6.21343,-29.19321 -8.5841,-43.24347 -2.53747,-15.03891 -6.56187,-33.50712 -6.2711,-45.321087 0.0928,-3.768258 -0.11801,-5.300839 2.13781,-7.697228 3.75332,-3.987096 11.5869,-11.241994 11.5869,-11.241994 z"
     id="path831"
     inkscape:connector-curvature="0" />
</svg>

<svg xmlns="http://www.w3.org/2000/svg" id="svg16" version="1.1" viewBox="0 0 192 192"><defs id="defs4"><style id="style2">.a{fill:none;stroke:#b1b5bd;stroke-linecap:round;stroke-linejoin:round;isolation:isolate;opacity:.63}</style></defs><path id="path829" d="M123.803 8S88.752 18.735 80.469 61.816C66.629 51.64 55.676 50.73 55.676 50.73s4.879 12.061 4.232 18.141c-1.452 13.65-8.946 17.21-12.496 28.219-.826 2.56-.605 7.256-.605 7.256s-8.409-4.568-8.868-23.785c-20.215 36.2.604 61.677.604 61.677S30.66 145.595 20 135.79c.687 10.95 8.75 29.662 26.307 40.64 12.038 7.528 26.676 7.966 43.195 6.786l21.238-12.356 24.84 6.815.004.008c30.11-10.235 45.797-45.445 39.012-82.004-9.259 10.804-16.528 9.474-16.528 9.474s7.67-28.466-12.9-56.035c2.123 12.732-4.838 16.53-4.838 16.53-7.92-15.405-18.993-29.111-20.76-42.731C118.542 14.993 123.803 8 123.803 8z" style="opacity:1;fill:#56595b;stroke-width:1.40148556"/><path id="path831" d="M134.45 70.17s-23.622 7.908-39.52 16.516c-4.206 2.277-10.408 8.856-10.832 9.405-.4.52-.78 3.505 0 6.129-4.73 1.542-13.548 6.911-16.106 11.546-.654 1.185.57 6.129.57 6.129s4.609-4.351 12.777-5.023c17.841-1.468 24.707 1.316 24.707 1.316s-4.67-.432-6.849.058c-3.524.792-9.493 3.92-9.542 4.645-.057.846 2.426.58 3.556.216.853-.275 4.28-2.146 6.53-2.042 1.32.061 3.104.73 3.17 1.541.077.94-6.814 5.585-13.114 6.129-12.15 1.05-17.53-1.995-17.53-1.995s.39 6.29 1.996 10.973c2.654 7.741 5.913 8.207 5.913 8.207-2.626-4.363-.496-5.642-.496-5.642s1.584-1.622 5.686-2.086c1.796-.203 7.162-.063 10.847-1.048 2.177-.582 6.126-2.852 6.126-2.852s-.44 4.67-1.565 7.056c-2.263 4.805-15.253 17.653-14.751 31.498.133 3.675 2.543 10.029 3.476 12.37 9.873-.705 20.417-1.99 31.481-2.683 5.18-.324 10.051-1.313 14.601-2.86-1.215-5.691-6.213-29.193-8.584-43.244-2.538-15.038-6.562-33.507-6.271-45.32.093-3.769-.118-5.301 2.138-7.698 3.753-3.987 11.586-11.242 11.586-11.242z" style="fill:#fff;stroke-width:1.40148556"/></svg>
